X: 113
M: 2/4
L: 1/16
K: D
|:\
dfaf dfaf | d2c2d2A2 |\
dfaf (df).a.f | d2c2d4 ::\
(fg).a.b {b}a2gf | (ge).f.d {d}c2BA |
(fg).a.b {b}a2gf | Te4 d4 ::\
(DE).F.G A2GF | E2D2A2A2 |\
|:\
gfed gfed | cdec d2A2 |\
gfed cdec | d4 D4 :|


